X: 1
T: Barber of Seville
T: Overture
C: Gioacchino Rossini
S: Carl Fischer 24247-94
U: Q=!diminuendo(!
U: q=!diminuendo)!
U: P=!crescendo(!
U: p=!crescendo)!
M: C
L: 1/16
K: E
%--------------- p.1 s.1
"Andante maestoso"\
!ff!e' |\
e'4 z4 z8 |\
"^Fl."z4 !p!Q(c'3g a2)qz2 z4 & z16 |\
z4 "^Pi."z3!ff!d' d'4 z4 |\
z8 "^Fl."z4 (Qb3^^f & z16 |\
g2q)z2 z4 z8 & z16 | Z4 |\
"^Fl."z8 !f!(d'8 & z16 |
%--------------- p.1 s.2
"A"[|]\
e'2)z2 z4 z8 & z16 |\
Z6 |\
z8 z4 z2 e'/e'/e'/e'/ |\
.e'2z2 z4 z4 z2f'/f'/f'/f'/ "B"|\
.f'2z2 z4 z8 | Z3 |\
z4 z3b b4 z4 | Hz16 ||[K:=c=g=d]
%--------------- p.1 s.3
M: C|
K: G
"Allegro vivace"\
z8 z2!p!b2b2b2 |\
(c'2b2) z4 z2 .b2.b2.b2 |\
(c'2b2) z4 z2 .b2.b2.b2 |\
(c'2{d'c'}b2) z2a2 (a2{ba}g2) z2f2 |\
{g}(f2e)z e4- e2.g2.g2.g2 |
%--------------- p.1 s.4
(f2e2) z2.g2 (f2e2) z2.g2 |\
(b2f)z !>!f4 z2.f2.g2.a2 |\
(a2g2) (g/f/e3) (e/d/c3) (c/B/^A3) |\
B2z2 z4 z8 | z16 |
%--------------- p.1 s.5
z8 z2!p!.e'2.d'2.c'2 |\
(d'/c'/b3) (c'/b/a3) (b/a/g3) (a/g/f3) |\
e2z2 z4 z8 |\
z8 z2!p!.b2.b2.b2 |\
(c'2b2) z4 z2.b2.b2.b2 |
%--------------- p.1 s.6
(c'2b2) z4 z2.b2.b2.b2 |\
(c'2{d'c'}b2) z2a2 (a2{ba}g2) z2f2 |\
{g}(f2e)z e4-e2.g2.f2.e2 |\
(d2e'2) !>!d'4- d'2.c'2.b2.a2 |\
(b2c'2) !>!b4- b2.a2.g2.f2 |
%--------------- p.1 s.7
bz3 z4 z8 | z16 "C"|\
!ff!e'8- | e'8 |\
(e'2b2) .b2.b2 (g2b2).b2.b2 |\
(g2b2).b2.b2 (c'2b2a2g2) |\
f'16- | f'16 |
%--------------- p.1 s.8
z2a2a2a2 (f2a2).a2.a2 |\
(f2a2).a2.a2 (c'2b2).b2.a2 |\
e'16- | e'16 |\
z2b2b2b2 (g2b2).b2.b2 |\
(g2b2).b2.b2 (c'2b2a2g2) |
%--------------- p.1 s.9
=d'16- | d'16 |\
z2c'2c'2c'2 (a2c'2).c'2.c'2 |\
.c'2.b2.a2.g2 .f2.e2.d2.c2 |\
B4 z4 z8 |\
"^Fl."y!f!e'8 x8 & yz8 "^Pi."e'8 |\
"^Fl."d'8 x8 & z8 "^Pi."d'8 |
%--------------- p.1 s.10
z4 !>!e'8 (f'3e') |\
d'4 z4 z8 |\
z2=f'2e'2d'2 c'2z2 z4 |\
z2_e'2d'2c'2 b2z2z4 |\
z4 !>!g'8 (f'3e') | d'2z2 z4 z8 |
%
%--------------- p.2 s.1
^c2d2e2f2 g2a2b2^c'2 | d'2a2 f'8 (gfed) |\
^c2d2e2f2 g2a2b2^c'2 "D"| d'2z2 !f!!>!_e'4 z8 |\
z16 | z4 !f!!>!_e'4 z8 |
%--------------- p.2 s.2
Z5 | "^Fl. or E\b Cl."z4 !>!!mf!e'4- e'2.d'2.c'2.b2 |\
.a2z2 z4 z8 | Z5 "E"| Z2 | z8 z3"Fl."!p!de3f | g3gg3g g3gg3g |\
(^g8 a4)z4 | z16 |
%--------------- p.2 s.2
%--------------- p.2 s.2
%--------------- p.2 s.2
%--------------- p.2 s.2
%--------------- p.2 s.2
%--------------- p.2 s.2
%--------------- p.2 s.2
%--------------- p.2 s.2
%--------------- p.2 s.2
%--------------- p.2 s.2
